X: 1
T: Princess Ann
R: three-two
M: 3/2
L: 1/8
K: Emin
|:g4 ag(fe) (gf)(e^d)|e2B4B2e3f|g4ag(fe) gf(e^d)|e2E4B2e3f|g4 ag(fe) (gf)(e^d)|
e2B4B2e3f|g4 (ag)(fe) (gf)(e^d)|e2E4E2B3c|d4G2(cB) (AB)(cA)|B2g4G2B3c|
d4G2(cB) (AG)(AF)|G2g4G2B3c|d4G2(cB) (AB)(cA)|B2g4G2B3c|d4G2(cB) (AG)(AF)|G2g4B2e3f:|

